svgs/sharp-light/anchor.svg

<svg xmlns="http://www.w3.org/2000/svg" viewBox="0 0 576 512"><!--! Font Awesome Pro 6.6.0 by @fontawesome - https://fontawesome.com License - https://fontawesome.com/license (Commercial License) Copyright 2024 Fonticons, Inc. --><path d="M336 80a48 48 0 1 1 -96 0 48 48 0 1 1 96 0zM288 0c-44.2 0-80 35.8-80 80c0 38.7 27.5 71 64 78.4l0 1.6 0 32-64 0-16 0 0 32 16 0 64 0 0 256L96 480l0-169.4 28.7 28.7L136 350.6 158.6 328l-11.3-11.3-56-56L80 249.4 68.7 260.7l-56 56L1.4 328 24 350.6l11.3-11.3L64 310.6 64 496l0 16 16 0 208 0 208 0 16 0 0-16 0-185.4 28.7 28.7L552 350.6 574.6 328l-11.3-11.3-56-56L496 249.4l-11.3 11.3-56 56L417.4 328 440 350.6l11.3-11.3L480 310.6 480 480l-176 0 0-256 64 0 16 0 0-32-16 0-64 0 0-32 0-1.6c36.5-7.4 64-39.7 64-78.4c0-44.2-35.8-80-80-80z"/></svg>

<svg xmlns="http://www.w3.org/2000/svg" viewBox="0 0 576 512"><!--! Font Awesome Pro 6.4.0 by @fontawesome - https://fontawesome.com License - https://fontawesome.com/license (Commercial License) Copyright 2023 Fonticons, Inc. --><path d="M336 80a48 48 0 1 1 -96 0 48 48 0 1 1 96 0zM288 0c-44.2 0-80 35.8-80 80c0 38.7 27.5 71 64 78.4V160v32H208 192v32h16 64V480H96V310.6l28.7 28.7L136 350.6 158.6 328l-11.3-11.3-56-56L80 249.4 68.7 260.7l-56 56L1.4 328 24 350.6l11.3-11.3L64 310.6V496v16H80 288 496h16V496 310.6l28.7 28.7L552 350.6 574.6 328l-11.3-11.3-56-56L496 249.4l-11.3 11.3-56 56L417.4 328 440 350.6l11.3-11.3L480 310.6V480H304V224h64 16V192H368 304V160v-1.6c36.5-7.4 64-39.7 64-78.4c0-44.2-35.8-80-80-80z"/></svg>
